X:1
T:Alexandria
T:E minor                    Alexander Gillet, 1791
T:Transcribed from Law's Christian Harmony, 1794.
T:Isaac Watts, 1719 (Psalm 42, Part 2)                  88. 88. (L. M.)
%%score [ 1 2 3 ( 4 5 ) ]
L:1/8
Q:1/4=140
M:4/4
K:G
V:1 treble nm="Tr.\n1" snm="Tr.\n1"
V:2 treble nm="Tr.\n2" snm="Tr.\n2"
V:3 treble-8 nm="T." snm="T."
V:4 bass nm="B." snm="B."
V:5 bass 
V:1
 E2 | E4 (F2 E2) | B,4 z2 F2 | G4 (F2 E2) | ^D6 E2 | G4 A4 | B6 c2 | B4 B4 | B8 | z4 B4 | e4 e4 | %11
 ^d4 z2 d2 | ^c4 =c4 | B6 d2 | G4 A4 | B6 c2 | (3(B2 A2 G2) F4 | E6 E2 | c4 B4 | A6 e2 | %20
 (B4 B>cBA | G4) F4 | E8 | z4 B4 | (e2 d2 e2) f2 | g4 d4 | (c2 B2 d2) f2 | e8- | e4 (Bc d2 | %29
 d4) e2 f2 | g6 B2 | d4 (3(c2 B2 A2) | B8 | z4 G4 | d6 d2 | d4 (e3 B) | c6 c2 | B4 z2 E2 | %38
 (E2 B2) B4 | (3(c2 B2 A2) (3(A2 B2 c2) | (3(B2 A2 G2) F4 | E4 z2 B2 | (B2 e2) d4 | %43
 (3(e2 d2 c2) B4 | (3(c2 B2 A2 (3B2 A2 G2) | F8 | E8 | z4 E4 | E6 E2 | G4 z2 E2 | B6 B2 | B6 G2 | %52
 A4 A4 | A4 z2 F2 | G4 G4 | (G4 F4) | z4 z2 c2 |: (B2 A2) (B2 c2) | B4 z2 G2 | d6 d2 | d6 e2 | %61
 (e2 d2) B4 | (G2 E2) D4 | (E>FGA B2) c2 | B6 e2 | e4 (c2 B2) | A2 c2 (B>cBA | G4) F4 |1 E6 c2 :|2 %69
 E8 |] %70
V:2
"_1. My spi–rit  sinks  with–in       me,  Lord,  But I will call thy   name     to         mind,   And    times  of  past  distress  record,  When I have found my God was kind, When I have" E2 | %1
 G4 (F2 E2) | F4 z2 A2 | (3(B2 A2 G2) F4 | F6 G2 | E4 F4 | G6 E2 | (3(B2 A2 G2) F4 | E8 | z4 E4 | %10
 G4 E4 | ^D4 z2 G2 | F4 F4 | F6 E2 | G4 A4 | B6 c2 | B4 B4 | B6 E2 | G4 E4 | %19
"_1. found my God                    was    kind.   Huge trou –  bles with tu – mul –tuous noise   Swell ____ like a sea, and round me  spread;    Thy  water-spouts  drown all my joys,     And" F6 E2 | %20
 ^D8 | F8 | E8 | z4 E4 | (G2 F2 G2) A2 | B4 B4 | (c2 B2 A2) B2 | B8- | B4 B4- | B4 B2 B2 | B6 F2 | %31
 G4 (F2 E2) | ^D8 | z4 C4 | D6 D2 | D4 (B3 G) | A6 A2 | (G2 F2) z2 E2 | %38
"_1.  ri  –  sing        waves     roll         o'er      my  head,  And  ri   –  sing       waves    roll          o'er ___________  my  head.  Yet will the Lord command his love, When I address his" B4 B4 | %39
 A4 c4 | B6 B2 | B4 z2 B2 | B4 B4 | c4 (3(B2 A2 G2) | F8 | ^D8 | E8 | z4 E4 | E6 E2 | E4 z2 A2 | %50
 G6 G2 | F6 E2 | F4 F4 | F4 z2 F2 | %54
"_1.  throne   by     day,         Nor     in      the   night his grace remove;  The night shall hear me sing ______ and pray,  The night  shall hear  me    sing _______ and   pray.  Nor" (G2 F2) (F2 E2) | %55
 ^D8 | z4 z2 E2 |: E4 (E2 FG) | F4 z2 E2 | D6 D2 | D6 E2 | B4 B4 | G4 F4 | (B2 G2) F4 | G6 E2 | %65
 B4 G4 | AG FE F4 | ^D8 |1 E6 E2 :|2 E8 |] %70
V:3
"_2. I'll  cast  my – self  be – fore    his      feet, And say, My God, my hea – venly     rock,   Why doth  thy  love  so  long forget  The soul that groans beneath thy stroke, The soul that" B2 | %1
 B4 (A2 G2) | F4 z2 F2 | G4 c4 | B6 B2 | G4 d4 | e6 e2 | ^d4 (3(d2 e2 f2) | e8 | z4 (E2 B2) | %10
 B4 B4 | B4 z2 E2 | F4 F4 | F6 E2 | c4 c4 | B6 e2 | (f2 e2) (d2 c2) | B6 G2 | G4 B4 | %19
"_2. groans be – neath             thy   stroke?  I'll   chide   my heart  that  sinks    so   low,      Why       should my soul indulge  her    grief?  Hope in the  Lord,  and  praise  him  too;  He" d6 e2 | %20
 f8 | ^d8 | e8 | z4 e4 | (e2 B2 e2) f2 | g4 f4 | (e2 d2 e2) f2 | g8- | g4 B4- | B4 e2 B2 | d6 d2 | %31
 g4 (f2 e2) | f8 | z4 c4 | B6 A2 | B4 (B3 G) | A6 A2 | (G2 F2) z2 E2 | %38
"_2.  is     my         rest,        my          sure       re  –  lief,   He   is     my          rest,        my         sure ___________ relief. Thy light and  truth shall guide me still, Thy word shall my best" (B2 e2) e4 | %39
 d4 (3(d2 e2 f2) | (B2 c2) B4 | B4 z2 G2 | (E2 B2) B4 | A4 (G2 d2) | (e2 d2 (3e2 d2 c2) | B8 | B8 | %47
 z4 B,4 | E6 F2 | G4 z2 e2 | d6 c2 | B6 G2 | d4 d4 | d4 z2 f2 | %54
"_2. thoughts em – ploy,       And   lead    me     to  thine heavenly hill,  My God, my most ex – cee        –     ding  joy,  My God, my    most   ex  –  cee         –      ding  joy.  And" (e2 d2) (c2 B2) | %55
 B8 | z4 z2 e2 |: e4 d4 | B4 z2 d2 | G4 A4 | B6 G2 | E4 F4 | G4 c4 | (B>cBA G2) F2 | E6 E2 | %65
 B4 B4 | A2 cd (e2 dc | B4) B4 |1 B6 e2 :|2 B8 |] %70
V:4
 E,2 | E,4 B,,4 | D,4 z2 B,,2 | G,,4 A,,4 | B,,6 E,2 | G,4 F,4 | E,6 [A,,A,]2 | [B,,B,]4 B,,4 | %8
 [E,,E,]8 | z4 G,4 | E,4 ([G,,G,]2 [A,,A,]2) | [B,,B,]4 z2 G,2 | D,4 F,4 | B,,6 B,,2 | %14
 [G,,G,]4 [A,,A,]4 | [G,,G,]6 [A,,A,]2 | [B,,B,]4 B,,4 | E,6 E,2 | G,4 G,4 | %19
"__________________________________________\nEdited by B. C. Johnston, 2018. \n   1. Measure 13, \nTreble 1\n: C–C# changed to C#–C.\n   2. Measure 19, \nTenor\n: second note changed from D to B.\n   3. Measure 34, \nTreble 2\n: note changed from B to C.     \n   4. Measure 62, Treble 2: second note changed from A to B." D,6 C,2 | %20
 B,,8- | B,,4 B,,4 | [E,,E,]8 | z4 E,4 | (E2 D2 C2) B,2 | G,4 [B,,B,]4 | %26
 ([C,C]2 [B,,B,]2 [A,,A,]2) [B,,B,]2 | [E,E]8- | [E,E]4 [B,,B,]4- | [B,,B,]4 [B,,B,]2 [B,,B,]2 | %30
 G,6 G,2 | [G,,G,]4 (3(D,2 E,2 F,2) | B,,8 | z4 E,4 | [B,,B,]6 [A,,A,]2 | [G,,G,]4 (E,3 G,) | %36
 F,6 F,2 | B,,4 z2 E,2 | E,4 (3(E,2 F,2 G,2) | F,4 D,4 | B,,4 B,,4 | E,4 z2 E,2 | %42
 E,4 (3(G,2 A,2 B,2) | A,4 (G,2 A,2) | [B,,B,]8 | B,,8 | [E,,E,]8 | z4 G,4 | E,6 D,2 | C,4 z2 E,2 | %50
 G,6 A,2 | B,6 G,2 | D,4 D,4 | D,4 z2 D,2 | E,4 E,4 | B,,8 | z4 z2 E,2 |: E,4 G,4 | B,4 z2 G,2 | %59
 D,6 D,2 | G,6 G,2 | E,4 F,4 | G,4 D,4 | E,6 B,,2 | E,6 G,2 | (F,2 E,2) E,4 | E,2 A,,2 B,,4- | %67
 B,,4 B,,4 |1 [E,,E,]6 E,2 :|2 [E,,E,]8 |] %70
V:5
 x2 | x8 | x8 | x8 | x8 | x8 | x8 | x8 | x8 | x8 | x8 | x8 | x8 | x8 | x8 | x8 | x8 | x8 | G,,8 | %19
 x8 | x8 | x8 | x8 | x8 | E,8 | x8 | x8 | x8 | x8 | x8 | G,,8 | x8 | x8 | x8 | x8 | x8 | x8 | x8 | %38
 x8 | x8 | x8 | x8 | x8 | x8 | x8 | x8 | x8 | x8 | x8 | x8 | x8 | x8 | x8 | x8 | x8 | x8 | x8 |: %57
 x8 | x8 | x8 | G,,8 | x8 | x8 | x8 | x8 | x8 | x8 | x8 |1 x8 :|2 x8 |] %70

